X:7
T:The Thunderbolt
R:reel
B:Dungreen Collection
N:normally played in AEAE tuning
D:i. Kinnon & Betty Beaton, Cape Breton Fiddle, 
Z:Paul Stewart Cranford (P.S.C.), <http://www.cranfordpub.com>
L:1/8
M:C|
Q:333
K:A
F|ECEC ACED|CDEF ECB,2|A,CEC ACEA|FEFG A2 A,:|
||d|cAeA cBAd|cAdf ec B2|cAeA cBAG|FEFG A2 A,d|
cAeA cBAd|cAdf ec B2|fbed cBAG|FEFG A2 A,|]
